img/total-burn.svg

<svg width="498" height="163" viewBox="0 0 498 163" fill="none" xmlns="http://www.w3.org/2000/svg">
<line x1="146.807" y1="44.2471" x2="117.249" y2="59.1238" stroke="#EB2360" stroke-width="4"/>
<line x1="145.908" y1="44.4563" x2="469.533" y2="44.4563" stroke="#EB2360" stroke-width="4"/>
<line x1="164.224" y1="125.606" x2="112.749" y2="148.923" stroke="#EB2360" stroke-width="4"/>
<line x1="163.398" y1="125.819" x2="497.382" y2="125.819" stroke="#EB2360" stroke-width="4"/>
<path d="M70.6974 60.021C61.6682 60.021 52.8417 62.6985 45.3341 67.7149C37.8266 72.7313 31.9752 79.8612 28.5198 88.2032C25.0645 96.5451 24.1604 105.724 25.9219 114.58C27.6834 123.436 32.0314 131.57 38.4161 137.955C44.8007 144.34 52.9353 148.688 61.791 150.449C70.6468 152.211 79.826 151.307 88.168 147.851C96.5099 144.396 103.64 138.545 108.656 131.037C113.673 123.529 116.35 114.703 116.35 105.674C116.337 93.57 111.522 81.9659 102.964 73.4073C94.4053 64.8487 82.8011 60.0345 70.6974 60.021ZM110.56 100.185L104.405 103.273C104.073 103.44 103.779 103.673 103.542 103.96C103.305 104.246 103.13 104.578 103.028 104.935L97.8474 123.065L95.9676 124.945L97.5144 114.125C97.5947 113.566 97.4971 112.997 97.2353 112.497C96.9736 111.997 96.561 111.592 96.0562 111.34L86.4181 106.522L84.2079 97.6174L86.3724 88.9568L93.0297 86.7386C93.5646 86.5604 94.0299 86.2184 94.3596 85.7609C94.6893 85.3035 94.8667 84.7539 94.8665 84.1901V78.8192C94.8664 78.107 94.5833 77.4241 94.0797 76.9206L90.1052 72.9461L91.1176 71.0126C96.346 74.0971 100.81 78.3227 104.177 83.374C107.543 88.4254 109.726 94.1719 110.56 100.185ZM57.3078 67.7283L62.6411 74.3909V76.5392L48.7707 78.8514C48.1432 78.9564 47.5734 79.2807 47.1627 79.7666C46.7521 80.2525 46.5273 80.8684 46.5283 81.5046V85.8497L41.9631 84.3512C41.2875 84.1287 40.5513 84.1833 39.9159 84.503C39.2805 84.8227 38.7979 85.3814 38.574 86.0565L35.9154 94.0887C35.7793 94.4997 35.7446 94.9376 35.8142 95.365C35.8839 95.7924 36.0559 96.1966 36.3156 96.5432L44.3719 107.285C44.7661 107.811 45.3393 108.174 45.9832 108.305L59.056 110.921L66.6075 114.697L60.5518 122.812C60.3396 123.092 60.1861 123.412 60.1006 123.752L57.3346 134.548C57.2258 134.981 57.2258 135.434 57.3346 135.866L59.4534 144.331C58.1497 143.949 56.8661 143.501 55.6079 142.988L54.5471 134.854C54.4703 134.266 54.2012 133.72 53.7817 133.302L44.4095 123.929L46.2302 120.288C46.432 119.884 46.5284 119.435 46.5106 118.983C46.4927 118.532 46.3612 118.092 46.1282 117.705L38.0718 104.277C37.7063 103.668 37.1144 103.229 36.4257 103.055L30.6063 101.592C31.3976 93.9995 34.3266 86.7875 39.0531 80.7933C43.7795 74.7991 50.1094 70.2687 57.3078 67.7283ZM30.4881 107.11L34.0544 108.007L40.768 119.219L38.7405 123.272C38.4889 123.776 38.4022 124.346 38.4928 124.902C38.5835 125.459 38.8467 125.972 39.2454 126.371L49.34 136.468L49.81 140.058C44.1122 136.597 39.3638 131.774 35.9912 126.023C32.6187 120.272 30.7277 113.773 30.4881 107.11ZM70.6974 145.956C68.9002 145.941 67.1059 145.806 65.3265 145.553L62.727 135.214L65.1896 125.589L72.8458 115.341C73.081 115.027 73.2442 114.664 73.324 114.279C73.4038 113.894 73.3981 113.497 73.3075 113.115C73.2168 112.732 73.0433 112.374 72.7993 112.066C72.5553 111.758 72.2466 111.508 71.8951 111.332L61.1533 105.961C60.9398 105.855 60.7131 105.779 60.4793 105.733L48.059 103.246L41.4609 94.4485L42.8358 90.2941L48.3706 92.1175C48.7746 92.2512 49.2046 92.2869 49.6252 92.2217C50.0457 92.1565 50.4447 91.9923 50.7894 91.7426C51.134 91.4929 51.4143 91.1649 51.6073 90.7856C51.8003 90.4063 51.9003 89.9866 51.8992 89.561V83.7792L65.7696 81.467C66.3962 81.3622 66.9653 81.0387 67.3758 80.5539C67.7864 80.0691 68.0118 79.4545 68.012 78.8192V73.4483C68.0123 72.8382 67.8048 72.2463 67.4239 71.7699L62.9311 66.1599C70.7989 64.5969 78.9547 65.4313 86.3429 68.5554L84.4308 72.2022C84.1655 72.7092 84.069 73.2877 84.1554 73.8534C84.2419 74.4191 84.5068 74.9423 84.9115 75.3469L89.4956 79.931V82.2539L83.2761 84.327C82.8475 84.4698 82.4619 84.7184 82.1549 85.0498C81.8479 85.3812 81.6295 85.7847 81.5198 86.223L78.8344 96.9648C78.727 97.3932 78.727 97.8415 78.8344 98.2699L81.5198 109.012C81.6137 109.388 81.7879 109.739 82.0303 110.041C82.2728 110.343 82.5777 110.589 82.9243 110.763L91.934 115.266L89.5171 132.147C89.4348 132.707 89.5314 133.278 89.793 133.78C90.0547 134.281 90.468 134.687 90.9742 134.94C91.4803 135.193 92.0533 135.279 92.6114 135.187C93.1696 135.095 93.6844 134.829 94.0824 134.427L102.139 126.371C102.461 126.048 102.696 125.649 102.821 125.21L107.869 107.545L110.966 105.991C110.872 116.614 106.59 126.771 99.0501 134.254C91.5098 141.737 81.3208 145.943 70.6974 145.956Z" fill="#E5E5E5"/>
<path d="M118.383 56.648C118.119 56.4056 117.81 56.2184 117.473 56.0973C117.136 55.9763 116.778 55.9238 116.421 55.9431C116.063 55.9624 115.713 56.053 115.391 56.2095C115.069 56.3661 114.781 56.5855 114.545 56.8548L110.711 61.2374C109.75 52.2545 106.124 43.7644 100.299 36.8589C88.6173 23.0369 73.0014 2.22458 72.8457 2.01511C72.6097 1.69945 72.3073 1.43958 71.9596 1.25393C71.612 1.06829 71.2278 0.96143 70.8343 0.940932C70.4419 0.925178 70.0507 0.993731 69.687 1.14197C69.3234 1.29021 68.9957 1.51469 68.7262 1.80028C68.6832 1.84862 64.3355 6.55353 57.9844 13.7613C53.367 18.9767 50.4153 25.4542 49.5091 32.3608L47.4869 30.3386C47.2221 30.0787 46.9073 29.8752 46.5616 29.7405C46.2158 29.6057 45.8464 29.5424 45.4755 29.5545C45.1041 29.5701 44.7401 29.6627 44.4063 29.8263C44.0726 29.9899 43.7764 30.2211 43.5366 30.5051C34.296 41.4456 25.9147 52.029 19.2977 61.1193C15.1891 66.7683 12.2829 73.1999 10.7586 80.0166C9.23432 86.8334 9.12443 93.8903 10.4357 100.751L4.86876 97.953C4.47853 97.7577 4.0466 97.6605 3.61035 97.6697C3.17409 97.679 2.74666 97.7944 2.36504 98.0059C1.98341 98.2175 1.65909 98.5189 1.42014 98.884C1.18118 99.2491 1.0348 99.6669 0.993649 100.101C0.905029 101.082 0.875488 102.048 0.875488 102.988C0.875488 138.877 28.2832 162.068 70.6973 162.068C113.111 162.068 140.519 138.877 140.519 102.988C140.519 87.6811 131.415 68.6144 118.383 56.648ZM70.6973 156.697C32.2147 156.697 7.11917 136.333 6.26788 104.659L13.1024 108.091C13.5588 108.319 14.0709 108.413 14.5787 108.36C15.0864 108.308 15.5687 108.112 15.9692 107.796C16.3697 107.479 16.6716 107.055 16.8397 106.573C17.0079 106.092 17.0351 105.572 16.9184 105.075L16.1128 101.632C14.6066 95.2299 14.4999 88.578 15.7999 82.1309C17.0999 75.6837 19.776 69.593 23.6455 64.2747C29.7334 55.9149 37.3413 46.2553 45.7602 36.209L50.0032 40.4493C50.3797 40.8247 50.8592 41.0798 51.3808 41.1824C51.9025 41.2851 52.4428 41.2305 52.9335 41.0258C53.4241 40.821 53.8429 40.4752 54.1368 40.0322C54.4308 39.5892 54.5866 39.0689 54.5846 38.5373V36.8911C54.5854 29.6819 57.2225 22.7219 61.9991 17.3222C65.6486 13.1866 68.6268 9.8835 70.5013 7.82107C75.088 13.8768 86.8825 29.3047 96.2011 40.3151C102.298 47.5594 105.63 56.7293 105.608 66.1975V68.0773C105.608 68.6234 105.775 69.1565 106.086 69.6056C106.397 70.0546 106.837 70.3981 107.348 70.5904C107.859 70.7827 108.417 70.8145 108.947 70.6817C109.476 70.5489 109.953 70.2577 110.313 69.847L116.731 62.513C127.672 73.5771 135.148 89.8456 135.148 102.988C135.148 135.614 109.851 156.697 70.6973 156.697Z" fill="#EB2360"/>
</svg>

<svg width="498" height="163" fill="none" xmlns="http://www.w3.org/2000/svg"><path stroke="#EB2360" stroke-width="4" d="M146.807 44.247l-29.558 14.877M145.908 44.456h323.625M164.224 125.606l-51.475 23.317M163.398 125.819h333.984"/><path d="M70.697 60.021a45.653 45.653 0 1045.653 45.653 45.704 45.704 0 00-45.653-45.653zm39.863 40.164l-6.155 3.088a2.679 2.679 0 00-1.377 1.662l-5.18 18.13-1.88 1.88 1.546-10.82a2.685 2.685 0 00-1.458-2.785l-9.638-4.818-2.21-8.905 2.164-8.66 6.658-2.218a2.685 2.685 0 001.837-2.549v-5.37c0-.713-.284-1.396-.787-1.9l-3.975-3.974 1.013-1.933a40.31 40.31 0 0119.442 29.172zM57.308 67.728l5.333 6.663v2.148l-13.87 2.312a2.686 2.686 0 00-2.243 2.654v4.345l-4.565-1.499a2.686 2.686 0 00-3.389 1.706l-2.659 8.032a2.687 2.687 0 00.4 2.454l8.057 10.742c.394.526.967.889 1.611 1.02l13.073 2.616 7.552 3.776-6.056 8.115c-.212.28-.366.6-.451.94l-2.766 10.796a2.702 2.702 0 000 1.318l2.118 8.465a39.907 39.907 0 01-3.845-1.343l-1.06-8.134a2.681 2.681 0 00-.766-1.552l-9.372-9.373 1.82-3.641a2.684 2.684 0 00-.102-2.583l-8.056-13.428a2.687 2.687 0 00-1.646-1.222l-5.82-1.463a40.345 40.345 0 0126.702-33.864zm-26.82 39.382l3.566.897 6.714 11.212-2.028 4.053a2.683 2.683 0 00.505 3.099l10.095 10.097.47 3.59a40.236 40.236 0 01-19.322-32.948zm40.21 38.846a40.56 40.56 0 01-5.371-.403l-2.6-10.339 2.463-9.625 7.656-10.248a2.679 2.679 0 00.462-2.226 2.686 2.686 0 00-1.413-1.783l-10.742-5.371a2.676 2.676 0 00-.674-.228l-12.42-2.487-6.598-8.797 1.375-4.155 5.535 1.824a2.684 2.684 0 003.528-2.557v-5.782l13.87-2.312a2.685 2.685 0 002.243-2.648v-5.37c0-.61-.207-1.203-.588-1.68l-4.493-5.61a40.067 40.067 0 0123.412 2.396l-1.912 3.647a2.687 2.687 0 00.48 3.145l4.585 4.584v2.323l-6.22 2.073a2.685 2.685 0 00-1.756 1.896l-2.686 10.742a2.683 2.683 0 000 1.305l2.686 10.742a2.682 2.682 0 001.404 1.751l9.01 4.503-2.417 16.881a2.687 2.687 0 003.094 3.04 2.684 2.684 0 001.471-.76l8.057-8.056c.322-.323.557-.722.682-1.161l5.048-17.665 3.097-1.554a40.322 40.322 0 01-40.269 39.965z" fill="#E5E5E5"/><path d="M118.383 56.648a2.69 2.69 0 00-2.992-.439c-.322.157-.61.377-.846.646l-3.834 4.382a45.28 45.28 0 00-10.412-24.378C88.617 23.037 73.001 2.225 72.846 2.015A2.686 2.686 0 0070.834.941a2.748 2.748 0 00-2.108.86c-.043.048-4.39 4.753-10.742 11.96a34.91 34.91 0 00-8.475 18.6l-2.022-2.022a2.742 2.742 0 00-2.012-.784 2.685 2.685 0 00-1.938.95c-9.241 10.94-17.622 21.524-24.24 30.614a51.078 51.078 0 00-8.861 39.632l-5.567-2.798a2.685 2.685 0 00-3.875 2.148 32.048 32.048 0 00-.119 2.887c0 35.889 27.408 59.08 69.822 59.08s69.822-23.191 69.822-59.08c0-15.307-9.104-34.374-22.136-46.34zM70.697 156.697c-38.482 0-63.578-20.364-64.43-52.038l6.835 3.432a2.681 2.681 0 002.867-.295 2.689 2.689 0 00.95-2.721l-.806-3.443a45.705 45.705 0 017.532-37.357c6.088-8.36 13.696-18.02 22.115-28.066l4.243 4.24a2.685 2.685 0 004.582-1.912v-1.646a29.54 29.54 0 017.414-19.569 883.305 883.305 0 018.502-9.5c4.587 6.055 16.381 21.483 25.7 32.493a40.05 40.05 0 019.407 25.883v1.88a2.685 2.685 0 004.705 1.769l6.418-7.334c10.941 11.064 18.417 27.333 18.417 40.475 0 32.626-25.297 53.709-64.45 53.709z" fill="#EB2360"/></svg>
